packages/foundations/assets/icons/functional/images/environment/water_drop_12_filled.svg

<svg width="12" height="12" viewBox="0 0 12 12" fill="none" xmlns="http://www.w3.org/2000/svg">
<g clip-path="url(#clip0_2204_3032)">
<path fill-rule="evenodd" clip-rule="evenodd" d="M8.65965 4.43789C8.65965 4.43789 7.3546 2.49531 6.7602 1.60315C6.72232 1.5469 6.67695 1.4989 6.62632 1.4599C6.45869 1.29489 6.23218 1.20001 5.99217 1.20001H5.9903C5.68803 1.20076 5.40752 1.35152 5.23952 1.60315C4.64587 2.49381 3.34419 4.43151 3.34457 4.43151C2.68342 5.38855 2.34778 6.29196 2.34778 7.11699C2.34778 9.21708 3.91796 10.8 6.00005 10.8C8.08213 10.8 9.65231 9.2167 9.65231 7.11699C9.65231 6.29196 9.3163 5.38893 8.65965 4.43789Z" fill="#1A1C1F"/>
</g>
<defs>
<clipPath id="clip0_2204_3032">
<rect width="12" height="12" fill="white"/>
</clipPath>
</defs>
</svg>

<svg xmlns="http://www.w3.org/2000/svg" width="12" height="12" fill="none"><g clip-path="url(#a)"><path fill="#1A1C1F" fill-rule="evenodd" d="M8.66 4.438s-1.305-1.943-1.9-2.835a.6.6 0 0 0-.134-.143.9.9 0 0 0-.634-.26H5.99a.9.9 0 0 0-.75.403c-.594.89-1.896 2.829-1.895 2.829-.662.957-.997 1.86-.997 2.685 0 2.1 1.57 3.683 3.652 3.683s3.652-1.583 3.652-3.683c0-.825-.336-1.728-.992-2.68" clip-rule="evenodd"/></g><defs><clipPath id="a"><path fill="#fff" d="M0 0h12v12H0z"/></clipPath></defs></svg>
